svg_80x80/gcp-functions.svg

<svg viewBox="0 0 80 80" xmlns="http://www.w3.org/2000/svg">
<rect width="100%" height="100%" fill="white"/>
<path d="M73.1832 36.8739L59.2118 12.6181C58.144 10.725 56.1492 9.53977 53.9738 9.5H26.0255C23.8501 9.53712 21.8554 10.725 20.7876 12.6181L6.8108 36.8103C5.72973 38.6875 5.72973 40.9996 6.8108 42.8769L20.7823 67.2705C21.8394 69.1902 23.8262 70.4152 26.0202 70.5H53.9685C56.1598 70.4258 58.152 69.2034 59.2118 67.2864L73.1832 43.0306C74.2723 41.1216 74.2723 38.783 73.1832 36.8739Z" fill="#4285F4"/>
<path d="M55.7155 31.966V47.7821L50.111 53.3767L47.3114 50.5821L51.5081 46.3927V42.9856L47.6407 39.125C47.7363 39.3557 47.7895 39.6102 47.7895 39.8754C47.7895 40.9704 46.9023 41.856 45.8053 41.856C45.0722 41.856 44.4321 41.4583 44.0894 40.867L32.3969 29.1687L28.2002 33.358V46.3954L32.3969 50.5847L29.5973 53.3794L46.3551 70.5H53.9704C56.1617 70.4258 58.1538 69.2034 59.2137 67.2864L70.8557 47.0768L55.7181 31.9687L55.7155 31.966ZM33.9296 41.856C32.8326 41.856 31.9454 40.9704 31.9454 39.8754C31.9454 38.7803 32.8326 37.8947 33.9296 37.8947C35.0266 37.8947 35.9137 38.7803 35.9137 39.8754C35.9137 40.9704 35.0266 41.856 33.9296 41.856ZM39.8661 41.856C38.7691 41.856 37.8819 40.9704 37.8819 39.8754C37.8819 38.7803 38.7691 37.8947 39.8661 37.8947C40.9631 37.8947 41.8503 38.7803 41.8503 39.8754C41.8503 40.9704 40.9631 41.856 39.8661 41.856Z" fill="#3E7AE3"/>
<path d="M28.1976 33.3553L32.3944 29.166L29.5948 26.3713L23.9902 31.966V47.7821L29.5948 53.3767L32.3944 50.582L28.1976 46.3927V33.3553Z" fill="white"/>
<path d="M33.9286 41.8561C35.0244 41.8561 35.9128 40.9693 35.9128 39.8754C35.9128 38.7815 35.0244 37.8947 33.9286 37.8947C32.8328 37.8947 31.9445 38.7815 31.9445 39.8754C31.9445 40.9693 32.8328 41.8561 33.9286 41.8561Z" fill="white"/>
<path d="M41.2689 38.4747C42.0437 39.2482 42.0437 40.5023 41.2689 41.2758C40.494 42.0493 39.2377 42.0493 38.4628 41.2758C37.688 40.5023 37.688 39.2482 38.4628 38.4747C39.2377 37.7012 40.494 37.7012 41.2689 38.4747Z" fill="white"/>
<path d="M47.207 41.2748C47.9819 40.5013 47.9819 39.2472 47.207 38.4737C46.4322 37.7002 45.1759 37.7002 44.401 38.4737C43.6261 39.2472 43.6261 40.5013 44.401 41.2748C45.1759 42.0483 46.4322 42.0483 47.207 41.2748Z" fill="white"/>
<path d="M47.3113 29.166L50.1109 26.3713L55.7154 31.966V47.7821L50.1109 53.3767L47.3113 50.582L51.508 46.3927V33.3553L47.3113 29.166Z" fill="white"/>
</svg>

<svg xmlns="http://www.w3.org/2000/svg" viewBox="0 0 80 80">
  <rect width="100%" height="100%" fill="#fff"/>
  <path fill="#4285F4" d="M73.18 36.87 59.21 12.62a6.14 6.14 0 0 0-5.24-3.12H26.03a6.14 6.14 0 0 0-5.24 3.12L6.8 36.8a6.08 6.08 0 0 0 0 6.07l13.97 24.39a6.25 6.25 0 0 0 5.24 3.23h27.95a6.24 6.24 0 0 0 5.24-3.21l13.97-24.26a6.2 6.2 0 0 0 0-6.16Z"/>
  <path fill="#3E7AE3" d="M55.72 31.97v15.81l-5.6 5.6-2.8-2.8 4.19-4.19V43l-3.87-3.87a1.98 1.98 0 0 1-3.55 1.74l-11.7-11.7-4.19 4.2V46.4l4.2 4.18-2.8 2.8L46.36 70.5h7.61a6.24 6.24 0 0 0 5.24-3.21l11.65-20.21-15.14-15.11Zm-21.79 9.89a1.98 1.98 0 1 1 0-3.97 1.98 1.98 0 0 1 0 3.97Zm5.94 0a1.98 1.98 0 1 1-.01-3.97 1.98 1.98 0 0 1 0 3.97Z"/>
  <path fill="#fff" d="m28.2 33.36 4.2-4.2-2.8-2.79-5.61 5.6v15.81l5.6 5.6 2.8-2.8-4.2-4.19V33.36Z"/>
  <path fill="#fff" d="M33.93 41.86a1.98 1.98 0 1 0 0-3.97 1.98 1.98 0 0 0 0 3.97ZM41.27 38.47a1.98 1.98 0 1 1-2.8 2.8 1.98 1.98 0 1 1 2.8-2.8ZM47.2 41.27a1.98 1.98 0 1 0-2.8-2.8 1.98 1.98 0 1 0 2.8 2.8Z"/>
  <path fill="#fff" d="m47.31 29.17 2.8-2.8 5.6 5.6v15.81l-5.6 5.6-2.8-2.8 4.2-4.19V33.36l-4.2-4.2Z"/>
</svg>
